Numix-GalliumOS/48/actions/gtk-print-paused.svg

<svg xmlns="http://www.w3.org/2000/svg" viewBox="0 0 48 48">
 <g style="fill-rule:evenodd">
  <path d="m 16 4 l 16 0 c 4 0 4 -0.398 4 4 l 0 16 c 0 4 0 4 -4 4 l -16 0 c -4 0 -4 0 -4 -4 l 0 -16 c 0 -4 0 -4 4 -4 Z" style="fill:#aaa;fill-opacity:0.941"/>
  <path d="m 8 16 l 32 0 c 4 0 4 0 4 4 l 0 12 c 0 4 0 4 -4 4 l -32 0 c -4 0 -4 0 -4 -4 l 0 -12 c 0 -4 0 -4 4 -4 Z" style="fill:#ccc"/>
 </g>
 <path d="m 12 24 l 24 0 l 0 20 l -24 0 Z" style="fill:#dc322f"/>
 <path d="m 48 10 c 0 5.521 -4.479 10 -10 10 -5.521 0 -10 -4.479 -10 -10 0 -5.521 4.479 -10 10 -10 5.521 0 10 4.479 10 10" style="fill:#5d5d5d;fill-opacity:1;fill-rule:evenodd"/>
 <g transform="matrix(0.25,0,0,0.25,32.5,4)" style="fill:#fff;fill-opacity:0.902">
  <path d="m 6 4 12 0 0 40 -12 0" style="fill:#fff;fill-opacity:0.902"/>
  <path d="m 26 4 12 0 0 40 -12 0 z" style="fill:#fff;fill-opacity:0.902"/>
 </g>
</svg>

<?xml version="1.0" encoding="UTF-8" standalone="no"?>
<svg
   xmlns:dc="http://purl.org/dc/elements/1.1/"
   xmlns:cc="http://creativecommons.org/ns#"
   xmlns:rdf="http://www.w3.org/1999/02/22-rdf-syntax-ns#"
   xmlns:svg="http://www.w3.org/2000/svg"
   xmlns="http://www.w3.org/2000/svg"
   xmlns:sodipodi="http://sodipodi.sourceforge.net/DTD/sodipodi-0.dtd"
   xmlns:inkscape="http://www.inkscape.org/namespaces/inkscape"
   width="48"
   height="48"
   viewBox="0 0 48 48"
   id="svg2"
   version="1.1"
   inkscape:version="0.91 r"
   sodipodi:docname="gtk-print-pause.svg">
  <metadata
     id="metadata24">
    <rdf:RDF>
      <cc:Work
         rdf:about="">
        <dc:format>image/svg+xml</dc:format>
        <dc:type
           rdf:resource="http://purl.org/dc/dcmitype/StillImage" />
        <dc:title></dc:title>
      </cc:Work>
    </rdf:RDF>
  </metadata>
  <defs
     id="defs22" />
  <sodipodi:namedview
     pagecolor="#ffffff"
     bordercolor="#666666"
     borderopacity="1"
     objecttolerance="10"
     gridtolerance="10"
     guidetolerance="10"
     inkscape:pageopacity="0"
     inkscape:pageshadow="2"
     inkscape:window-width="1366"
     inkscape:window-height="747"
     id="namedview20"
     showgrid="true"
     inkscape:zoom="19.666667"
     inkscape:cx="28.208543"
     inkscape:cy="32.052645"
     inkscape:window-x="0"
     inkscape:window-y="21"
     inkscape:window-maximized="1"
     inkscape:current-layer="svg2">
    <inkscape:grid
       type="xygrid"
       id="grid4310" />
  </sodipodi:namedview>
  <g
     style="fill-rule:evenodd"
     id="g4">
    <path
       style="fill:#aaa;fill-opacity:.941"
       d="M 16 4 L 32 4 C 36 4 36 3.601562 36 8 L 36 24 C 36 28 36 28 32 28 L 16 28 C 12 28 12 28 12 24 L 12 8 C 12 4 12 4 16 4 Z "
       id="path6" />
    <path
       style="fill:#ccc"
       d="M 8 16 L 40 16 C 44 16 44 16 44 20 L 44 32 C 44 36 44 36 40 36 L 8 36 C 4 36 4 36 4 32 L 4 20 C 4 16 4 16 8 16 Z "
       id="path8" />
  </g>
  <path
     style="fill:#dc322f"
     d="M 12 24 L 36 24 L 36 44 L 12 44 Z "
     id="path10" />
  <path
     inkscape:connector-curvature="0"
     style="fill:#5d5d5d;fill-rule:evenodd;fill-opacity:1"
     d="M 48,10 C 48,15.521485 43.521484,20 38,20 32.478515,20 28,15.521485 28,10 28,4.4785155 32.478515,0 38,0 43.521484,0 48,4.4785155 48,10 Z"
     id="path4267" />
  <g
     id="g4314"
     style="fill:#ffffff;fill-opacity:0.90196078"
     transform="matrix(0.25,0,0,0.25,32.5,4)">
    <path
       id="path4316"
       d="M 6,4 18,4 18,44 6,44 Z"
       inkscape:connector-curvature="0"
       style="fill:#ffffff;fill-opacity:0.90196078"
       sodipodi:nodetypes="ccccc" />
    <path
       id="path4318"
       d="m 26,4 12,0 0,40 -12,0 z"
       inkscape:connector-curvature="0"
       style="fill:#ffffff;fill-opacity:0.90196078"
       sodipodi:nodetypes="ccccc" />
  </g>
</svg>
